static/images/icons/directus.svg

<svg height="114" viewBox="0 0 188 114" width="188" xmlns="http://www.w3.org/2000/svg" xmlns:xlink="http://www.w3.org/1999/xlink"><linearGradient id="a" x1="0%" x2="100.012%" y1="49.999%" y2="49.999%"><stop offset="0" stop-color="#1670cc"/><stop offset=".42" stop-color="#80d9ef"/><stop offset=".89" stop-color="#f5defb"/><stop offset="1" stop-color="#eaf8f3"/></linearGradient><linearGradient id="b" x1="-71.597%" x2="124.232%" y1="50.012%" y2="50.012%"><stop offset="0" stop-color="#eaf8f3"/><stop offset=".11" stop-color="#f5defb"/><stop offset=".58" stop-color="#80d9ef"/><stop offset="1" stop-color="#1670cc"/></linearGradient><linearGradient id="c" x1="-14.675%" x2="95.372%" y1="49.985%" y2="49.985%"><stop offset="0" stop-color="#fff" stop-opacity="0"/><stop offset=".11" stop-color="#f5f8fb" stop-opacity=".05"/><stop offset=".3" stop-color="#dae6f0" stop-opacity=".2"/><stop offset=".54" stop-color="#aec7df" stop-opacity=".44"/><stop offset=".82" stop-color="#729ec6" stop-opacity=".76"/><stop offset="1" stop-color="#4680b5"/></linearGradient><radialGradient id="d" cx="92.947%" cy="78.325%" gradientTransform="matrix(.98577 -.11938 .25444 1.0595 -.186 .064)" r="87.507%"><stop offset="0" stop-color="#4680b5"/><stop offset=".09151" stop-color="#4881b6"/><stop offset=".2" stop-color="#7fa7cc"/><stop offset=".39" stop-color="#adc7de"/><stop offset=".56" stop-color="#d0dfec"/><stop offset=".73" stop-color="#eaf1f7"/><stop offset=".88" stop-color="#fafbfd"/><stop offset="1" stop-color="#fff"/></radialGradient><linearGradient id="e" x1="50.107%" x2="50.107%" y1="100%" y2=".006%"><stop offset="0" stop-color="#f4fafa"/><stop offset="1" stop-color="#d8ddf8"/></linearGradient><linearGradient id="f" x1="49.949%" x2="49.949%" y1="99.969%" y2="0%"><stop offset="0" stop-color="#66bcde"/><stop offset="1" stop-color="#f4fafa"/></linearGradient><radialGradient id="g" cx="1.74%" cy="46.907%" gradientTransform="matrix(.50955 0 0 .52662 .009 .222)" r="139.088%"><stop offset="0" stop-color="#4680b5"/><stop offset=".06" stop-color="#6192c0" stop-opacity=".85"/><stop offset=".16" stop-color="#8bafd0" stop-opacity=".63"/><stop offset=".27" stop-color="#afc8df" stop-opacity=".43"/><stop offset=".38" stop-color="#ccdceb" stop-opacity=".28"/><stop offset=".5" stop-color="#e3ebf4" stop-opacity=".15"/><stop offset=".64" stop-color="#f3f6fa" stop-opacity=".07"/><stop offset=".79" stop-color="#fcfdfe" stop-opacity=".02"/><stop offset="1" stop-color="#fff" stop-opacity="0"/></radialGradient><linearGradient id="h" x1="46.128%" y1="50.035%" y2="50.035%"><stop offset="0" stop-color="#fff" stop-opacity="0"/><stop offset=".3096" stop-color="#f4f9fb" stop-opacity=".13"/><stop offset=".78798" stop-color="#d7ebf0" stop-opacity=".48"/><stop offset="1" stop-color="#abd6df"/></linearGradient><linearGradient id="i" x1="46.093%" x2="50.998%" y1="107.99%" y2="29.922%"><stop offset="0" stop-color="#abd6df"/><stop offset=".31" stop-color="#d7ebf0" stop-opacity=".48"/><stop offset=".53" stop-color="#f4f9fb" stop-opacity=".13"/><stop offset=".64" stop-color="#fff" stop-opacity="0"/></linearGradient><linearGradient id="j" x1="10.917%" x2="116.24%" y1="63.029%" y2="15.697%"><stop offset=".07" stop-color="#fff" stop-opacity="0"/><stop offset=".16" stop-color="#fef8fe" stop-opacity=".14"/><stop offset=".33" stop-color="#fdecfd" stop-opacity=".4"/><stop offset=".5" stop-color="#fbe2fc" stop-opacity=".61"/><stop offset=".66" stop-color="#fadafb" stop-opacity=".78"/><stop offset=".8" stop-color="#fad5fa" stop-opacity=".9"/><stop offset=".92" stop-color="#f9d1fa" stop-opacity=".97"/><stop offset="1" stop-color="#f9d0fa"/></linearGradient><radialGradient id="k" cx="5.441%" cy="97.249%" gradientTransform="matrix(.63975 0 0 1 .02 0)" r="69.651%"><stop offset="0" stop-color="#bcdcf5"/><stop offset=".02" stop-color="#beddf5" stop-opacity=".97"/><stop offset=".48" stop-color="#ecf5fc" stop-opacity=".28"/><stop offset="1" stop-color="#fff" stop-opacity="0"/></radialGradient><linearGradient id="l" x1="39.862%" x2="68.177%" y1="54.63%" y2="1.872%"><stop offset="0" stop-color="#fff" stop-opacity="0"/><stop offset=".61" stop-color="#f3f5fd" stop-opacity=".27"/><stop offset=".98" stop-color="#d6ddf8" stop-opacity=".95"/><stop offset="1" stop-color="#d4dbf8"/></linearGradient><linearGradient id="m" x1="-2.933%" x2="97.783%" y1="81.568%" y2="28.983%"><stop offset="0" stop-color="#fff" stop-opacity="0"/><stop offset=".15" stop-color="#fbfcfd" stop-opacity=".02"/><stop offset=".3" stop-color="#eff4f8" stop-opacity=".09"/><stop offset=".45" stop-color="#dae6f0" stop-opacity=".2"/><stop offset=".6" stop-color="#bdd2e5" stop-opacity=".35"/><stop offset=".75" stop-color="#98b9d6" stop-opacity=".55"/><stop offset=".89" stop-color="#6c9ac4" stop-opacity=".8"/><stop offset="1" stop-color="#4680b5"/></linearGradient><linearGradient id="n" x1="31.986%" y1="50.028%" y2="50.028%"><stop offset="0" stop-color="#fff" stop-opacity="0"/><stop offset=".38103" stop-color="#ecf5fc" stop-opacity=".28"/><stop offset=".91549" stop-color="#beddf5" stop-opacity=".97"/><stop offset="1" stop-color="#bcdcf5"/></linearGradient><g fill="none" fill-rule="evenodd"><path d="m147.515841 70.9639895c-.592281-.2434846-1.125175-.6114134-1.5625-1.0788055v-.1078805c.46803-3.6823228 0-6.9906597.396025-10.7017507 1.440093-14.5566824 10.577477-9.9609709 18.800404-12.2624227 5.105126-1.4384073 10.224654-4.3583743 11.520737-10.4212612-5.515475-6.4726761-11.802511-12.2475675-18.721198-17.1961599-22.285427-15.89440125-51.382489-22.20181749-77.80818-17.85782729 9.7519948 17.04611839 30.485403 24.45183799 48.847926 17.44788119-.079205.1222646-1.440092 2.2223393-3.125 10.960664-3.657834 18.5770309-14.278514 17.1170475-27.3617509 12.4278395-27.2177419-9.8099381-42.2163018-.6544753-55.8035714-19.3537709-4.4258828 2.4788578-6.9068457 7.3889971-6.2743541 12.4177402s4.2523176 9.1733483 9.1545385 10.4817048c-10.296659 10.8455915-2.124136 26.3803909-20.0748848 29.6671517-7.1572581.3739859-7.0204494 5.1566903-9.5478111 12.3774952-3.2762097 9.3280717-7.54608295 13.0535466-15.9562212 21.9213276 3.42741935 4.149806 7.04925115 4.703592 10.7286866 3.164497 7.5532834-3.157305 13.3640553-12.9456665 18.8724079-19.2746589 6.1059908-7.0553881 20.7805299-4.0347326 31.9196428-10.9175118 3.0669655-1.8945673 5.6661391-4.4562816 7.6036867-7.4941023 15.2289746-7.7889758 39.033698 19.4184993 58.323733 15.2111578 5.760368 2.7617421 12.924827 3.6607467 21.118951 1.186686 4.83871-1.4384073 9.259793-3.2795687 14.624136-2.3086438 3.996533.6097965 7.573033 2.8165319 9.907834 6.1132313 3.43462 5.0344257 11.045507 6.1419997 14.400922-.0647284-8.518145-21.9429041-32.920507-21.3603491-39.984159-24.3378524z" fill="url(#a)"/><path d="m129.166667 18.7516325c-13.922384 5.2755329-29.6496185 2.4270301-40.7908155-7.3879961-3.7881986 1.2925582-7.4957471 2.8066676-11.1031242 4.5343558 14.2250354 13.4986873 36.2501577 14.7098456 51.8939397 2.8536403z" fill="url(#b)"/><path d="m88.3888029 11.3636364c-1.9617225.6704589-3.8994043 1.3979782-5.8130453 2.1825579 12.7612877 11.5116311 31.5590354 13.6066134 46.5909094 5.1924906-13.919282 5.2592926-29.6416791 2.4157537-40.7778641-7.3750485z" fill="url(#c)"/><path d="m127.651515 90.459314c-3.604711-1.733351-6.773064-4.2489306-9.271958-7.3616634-5.356166-6.6701568-6.326067-13.1602338-4.66855-18.3249233-3.771031 3.9113338-5.79045 10.1709087-3.901316 18.5050031.397466 1.7703916.97465 3.4960137 1.722659 5.1502831 5.522642 2.0601133 10.980141 3.1549986 16.119165 2.0313005z" fill="url(#d)"/><path d="m145.7119 69.6969697v-.1075827c.465549-3.6721561 0-6.9713588.393926-10.6722037.909612-9.0728075 4.79874-10.686548 9.575992-11.1814284-6.977995-.213063-13.459036 3.6022776-16.666666 9.8115421 4.956309 4.1383478 4.232917 9.5174827 6.696748 12.1496727z" fill="url(#e)"/><path d="m71.969697 36.6605756c-11.9694728-1.3352749-20.8477304-2.3004464-29.2443335-13.9333029-4.4187599 2.5012239-6.89573 7.4556661-6.2642563 12.5297822s4.2454741 9.256117 9.1398053 10.5762784c7.244904-6.4524815 16.7241511-9.7499728 26.3687845-9.1727577z" fill="url(#f)" opacity=".85"/><path d="m127.272727 90.461871c-3.083992-1.4840299-5.851706-3.5502215-8.150669-6.0847489-6.468785-1.6666609-14.274452-5.1364764-19.7585443-12.3634628-11.162248-14.7197763-31.5604834-10.9841572-31.5604834-10.9841572 2.0837423 4.4502473 2.5267066 9.4934003 1.2506318 14.2384563 15.1944572-7.7801454 38.9636489 19.410852 58.2190649 15.1939126z" fill="url(#g)"/><path d="m112.121212 45.1588158c-4.015289.0792889-8.63503-1.2397896-13.6073688-3.0273933-27.2147379-9.8318203-42.2037118-.6559353-55.7822973-19.4041498-4.4230541 2.4843872-6.9024313 7.4054791-6.270344 12.4454394.6320874 5.0399603 4.2495999 9.1938105 9.1486875 10.5050854-5.3681106 5.6439262-5.7279036 12.5708905-7.3541676 18.337354l29.6325464-3.1283064c-3.0654358-15.2090476 34.4321838-13.0610399 44.2329438-15.7280293z" fill="url(#h)" opacity=".8"/><path d="m80.3030303 1.34712903c9.7560567 17.19021177 30.4981007 24.65853307 48.8682727 17.59537077 8.807521-3.7484795 18.713003-3.9251834 27.646879-.4931926-22.093012-15.35424563-50.589899-21.39585479-76.5151517-17.10217817z" fill="url(#i)" fill-opacity=".85"/><path d="m176.515152 36.3899159c-5.513246-6.4616829-11.797742-12.2267661-18.713633-17.1669539-8.220101-5.8141024-17.260558-10.37763981-26.825272-13.54114382l-2.108882 13.13907382-.2951.5743858c-.496631 1.0841531-1.554671 3.905823-2.828637 10.3676626-1.727412 8.7737422-5.038286 13.0672756-9.356816 14.6611961-.179939.0646184-.381471.1364166-.604595.201035l-.251914.0717982c23.672745-3.704788 19.642116-27.8505287 39.737678-12.7729029 5.664473 4.2504545 11.595255 9.1470929 21.247171 4.4658491z" fill="url(#j)"/><path d="m176.515152 36.3899159c-5.513246-6.4616829-11.797742-12.2267661-18.713633-17.1669539-8.220101-5.8141024-17.260558-10.37763981-26.825272-13.54114382l-2.108882 13.13907382-.2951.5743858c-.496631 1.0841531-1.554671 3.905823-2.828637 10.3676626-1.727412 8.7737422-5.038286 13.0672756-9.356816 14.6611961-.179939.0646184-.381471.1364166-.604595.201035l-.251914.0717982c23.672745-3.704788 19.642116-27.8505287 39.737678-12.7729029 5.664473 4.2504545 11.595255 9.1470929 21.247171 4.4658491z" fill="url(#k)"/><path d="m127.272727 90.4562757c-3.579549-1.7345737-6.725786-4.2519278-9.207237-7.3668562-1.546068-2.0029328-2.853481-4.1801773-3.895646-6.4874468-6.907225-14.6400049-6.878475-32.3507346-46.3668137-15.7140378 8.0069184 7.0785253 1.2506318 14.3228409 1.2506318 14.3228409 10.7813083-5.5431629 25.9182653 6.6099874 40.6742829 12.6072715 1.37282.5550372 2.601889 1.0163667 3.924396 1.4416549 4.664713 1.499321 9.25755 2.1624822 13.620386 1.1965735z" fill="url(#l)" opacity=".75"/><path d="m37.5 65.9090909c-1.6227186 4.5141564-4.4947869 8.1182589-12.0914076 9.519453-5.3707678.2816834-6.6201175 3.076849-7.98435 7.5260016 9.6044202-.83369 17.6459404-7.6613958 20.0757576-17.0454546z" fill="url(#m)"/><path d="m162.878788 89.1275445c-8.191726-2.6741364-16.909147-3.4216326-25.449296-2.1822112l-10.156765 3.2803562c5.738286 2.7031261 12.875278 3.5830499 21.037989 1.1614995 4.82016-1.4078782 9.224294-3.2099623 14.568072-2.2596445z" fill="url(#n)"/></g></svg>

<svg xmlns="http://www.w3.org/2000/svg" width="188" height="114" viewBox="0 0 188 114">
  <defs>
    <linearGradient id="directus-color-a" x1="0%" x2="100.012%" y1="49.999%" y2="49.999%">
      <stop offset="0%" stop-color="#1670CC"/>
      <stop offset="42%" stop-color="#80D9EF"/>
      <stop offset="89%" stop-color="#F5DEFB"/>
      <stop offset="100%" stop-color="#EAF8F3"/>
    </linearGradient>
    <linearGradient id="directus-color-b" x1="-71.597%" x2="124.232%" y1="50.012%" y2="50.012%">
      <stop offset="0%" stop-color="#EAF8F3"/>
      <stop offset="11%" stop-color="#F5DEFB"/>
      <stop offset="58%" stop-color="#80D9EF"/>
      <stop offset="100%" stop-color="#1670CC"/>
    </linearGradient>
    <linearGradient id="directus-color-c" x1="-14.675%" x2="95.372%" y1="49.985%" y2="49.985%">
      <stop offset="0%" stop-color="#FFF" stop-opacity="0"/>
      <stop offset="11%" stop-color="#F5F8FB" stop-opacity=".05"/>
      <stop offset="30%" stop-color="#DAE6F0" stop-opacity=".2"/>
      <stop offset="54%" stop-color="#AEC7DF" stop-opacity=".44"/>
      <stop offset="82%" stop-color="#729EC6" stop-opacity=".76"/>
      <stop offset="100%" stop-color="#4680B5"/>
    </linearGradient>
    <radialGradient id="directus-color-d" cx="92.947%" cy="78.325%" r="87.507%" fx="92.947%" fy="78.325%" gradientTransform="matrix(.98577 -.11938 .25444 1.0595 -.186 .064)">
      <stop offset="0%" stop-color="#4680B5"/>
      <stop offset="9.151%" stop-color="#4881B6"/>
      <stop offset="20%" stop-color="#7FA7CC"/>
      <stop offset="39%" stop-color="#ADC7DE"/>
      <stop offset="56%" stop-color="#D0DFEC"/>
      <stop offset="73%" stop-color="#EAF1F7"/>
      <stop offset="88%" stop-color="#FAFBFD"/>
      <stop offset="100%" stop-color="#FFF"/>
    </radialGradient>
    <linearGradient id="directus-color-e" x1="50.107%" x2="50.107%" y1="100%" y2=".006%">
      <stop offset="0%" stop-color="#F4FAFA"/>
      <stop offset="100%" stop-color="#D8DDF8"/>
    </linearGradient>
    <linearGradient id="directus-color-f" x1="49.949%" x2="49.949%" y1="99.969%" y2="0%">
      <stop offset="0%" stop-color="#66BCDE"/>
      <stop offset="100%" stop-color="#F4FAFA"/>
    </linearGradient>
    <radialGradient id="directus-color-g" cx="1.74%" cy="46.907%" r="139.088%" fx="1.74%" fy="46.907%" gradientTransform="matrix(.50955 0 0 .52662 .009 .222)">
      <stop offset="0%" stop-color="#4680B5"/>
      <stop offset="6%" stop-color="#6192C0" stop-opacity=".85"/>
      <stop offset="16%" stop-color="#8BAFD0" stop-opacity=".63"/>
      <stop offset="27%" stop-color="#AFC8DF" stop-opacity=".43"/>
      <stop offset="38%" stop-color="#CCDCEB" stop-opacity=".28"/>
      <stop offset="50%" stop-color="#E3EBF4" stop-opacity=".15"/>
      <stop offset="64%" stop-color="#F3F6FA" stop-opacity=".07"/>
      <stop offset="79%" stop-color="#FCFDFE" stop-opacity=".02"/>
      <stop offset="100%" stop-color="#FFF" stop-opacity="0"/>
    </radialGradient>
    <linearGradient id="directus-color-h" x1="46.128%" y1="50.035%" y2="50.035%">
      <stop offset="0%" stop-color="#FFF" stop-opacity="0"/>
      <stop offset="30.96%" stop-color="#F4F9FB" stop-opacity=".13"/>
      <stop offset="78.798%" stop-color="#D7EBF0" stop-opacity=".48"/>
      <stop offset="100%" stop-color="#ABD6DF"/>
    </linearGradient>
    <linearGradient id="directus-color-i" x1="46.093%" x2="50.998%" y1="107.99%" y2="29.922%">
      <stop offset="0%" stop-color="#ABD6DF"/>
      <stop offset="31%" stop-color="#D7EBF0" stop-opacity=".48"/>
      <stop offset="53%" stop-color="#F4F9FB" stop-opacity=".13"/>
      <stop offset="64%" stop-color="#FFF" stop-opacity="0"/>
    </linearGradient>
    <linearGradient id="directus-color-j" x1="10.917%" x2="116.24%" y1="63.029%" y2="15.697%">
      <stop offset="7%" stop-color="#FFF" stop-opacity="0"/>
      <stop offset="16%" stop-color="#FEF8FE" stop-opacity=".14"/>
      <stop offset="33%" stop-color="#FDECFD" stop-opacity=".4"/>
      <stop offset="50%" stop-color="#FBE2FC" stop-opacity=".61"/>
      <stop offset="66%" stop-color="#FADAFB" stop-opacity=".78"/>
      <stop offset="80%" stop-color="#FAD5FA" stop-opacity=".9"/>
      <stop offset="92%" stop-color="#F9D1FA" stop-opacity=".97"/>
      <stop offset="100%" stop-color="#F9D0FA"/>
    </linearGradient>
    <radialGradient id="directus-color-k" cx="5.441%" cy="97.249%" r="69.651%" fx="5.441%" fy="97.249%" gradientTransform="matrix(.63975 0 0 1 .02 0)">
      <stop offset="0%" stop-color="#BCDCF5"/>
      <stop offset="2%" stop-color="#BEDDF5" stop-opacity=".97"/>
      <stop offset="48%" stop-color="#ECF5FC" stop-opacity=".28"/>
      <stop offset="100%" stop-color="#FFF" stop-opacity="0"/>
    </radialGradient>
    <linearGradient id="directus-color-l" x1="39.862%" x2="68.177%" y1="54.63%" y2="1.872%">
      <stop offset="0%" stop-color="#FFF" stop-opacity="0"/>
      <stop offset="61%" stop-color="#F3F5FD" stop-opacity=".27"/>
      <stop offset="98%" stop-color="#D6DDF8" stop-opacity=".95"/>
      <stop offset="100%" stop-color="#D4DBF8"/>
    </linearGradient>
    <linearGradient id="directus-color-m" x1="-2.933%" x2="97.783%" y1="81.568%" y2="28.983%">
      <stop offset="0%" stop-color="#FFF" stop-opacity="0"/>
      <stop offset="15%" stop-color="#FBFCFD" stop-opacity=".02"/>
      <stop offset="30%" stop-color="#EFF4F8" stop-opacity=".09"/>
      <stop offset="45%" stop-color="#DAE6F0" stop-opacity=".2"/>
      <stop offset="60%" stop-color="#BDD2E5" stop-opacity=".35"/>
      <stop offset="75%" stop-color="#98B9D6" stop-opacity=".55"/>
      <stop offset="89%" stop-color="#6C9AC4" stop-opacity=".8"/>
      <stop offset="100%" stop-color="#4680B5"/>
    </linearGradient>
    <linearGradient id="directus-color-n" x1="31.986%" y1="50.028%" y2="50.028%">
      <stop offset="0%" stop-color="#FFF" stop-opacity="0"/>
      <stop offset="38.103%" stop-color="#ECF5FC" stop-opacity=".28"/>
      <stop offset="91.549%" stop-color="#BEDDF5" stop-opacity=".97"/>
      <stop offset="100%" stop-color="#BCDCF5"/>
    </linearGradient>
  </defs>
  <g fill="none" fill-rule="evenodd">
    <path fill="url(#directus-color-a)" d="M147.515841,70.9639895 C146.92356,70.7205049 146.390666,70.3525761 145.953341,69.885184 L145.953341,69.7773035 C146.421371,66.0949807 145.953341,62.7866438 146.349366,59.0755528 C147.789459,44.5188704 156.926843,49.1145819 165.14977,46.8131301 C170.254896,45.3747228 175.374424,42.4547558 176.670507,36.3918689 C171.155032,29.9191928 164.867996,24.1443014 157.949309,19.195709 C135.663882,3.30130775 106.56682,-3.00610849 80.141129,1.33788171 C89.8931238,18.3840001 110.626532,25.7897197 128.989055,18.7857629 C128.90985,18.9080275 127.548963,21.0081022 125.864055,29.7464269 C122.206221,48.3234578 111.585541,46.8634744 98.5023041,42.1742664 C71.2845622,32.3643283 56.2860023,41.5197911 42.6987327,22.8204955 C38.2728499,25.2993533 35.791887,30.2094926 36.4243786,35.2382357 C37.0568702,40.2669788 40.6766962,44.411584 45.5789171,45.7199405 C35.2822581,56.565532 43.4547811,72.1003314 25.5040323,75.3870922 C18.3467742,75.7610781 18.4835829,80.5437825 15.9562212,87.7645874 C12.6800115,97.0926591 8.41013825,100.818134 0,109.685915 C3.42741935,113.835721 7.04925115,114.389507 10.7286866,112.850412 C18.28197,109.693107 24.0927419,99.9047455 29.6010945,93.5757531 C35.7070853,86.520365 50.3816244,89.5410205 61.5207373,82.6582413 C64.5877028,80.763674 67.1868764,78.2019597 69.124424,75.164139 C84.3533986,67.3751632 108.158122,94.5826383 127.448157,90.3752968 C133.208525,93.1370389 140.372984,94.0360435 148.567108,91.5619828 C153.405818,90.1235755 157.826901,88.2824141 163.191244,89.253339 C167.187777,89.8631355 170.764277,92.0698709 173.099078,95.3665703 C176.533698,100.400996 184.144585,101.50857 187.5,95.3018419 C178.981855,73.3589378 154.579493,73.9414928 147.515841,70.9639895 Z"/>
    <path fill="url(#directus-color-b)" d="M129.166667,18.7516325 C115.244283,24.0271654 99.5170485,21.1786626 88.3758515,11.3636364 C84.5876529,12.6561946 80.8801044,14.170304 77.2727273,15.8979922 C91.4977627,29.3966795 113.522885,30.6078378 129.166667,18.7516325 L129.166667,18.7516325 Z"/>
    <path fill="url(#directus-color-c)" d="M88.3888029,11.3636364 C86.4270804,12.0340953 84.4893986,12.7616146 82.5757576,13.5461943 C95.3370453,25.0578254 114.134793,27.1528077 129.166667,18.7386849 L129.166667,18.7386849 C115.247385,23.9979775 99.5249879,21.1544386 88.3888029,11.3636364 L88.3888029,11.3636364 Z" style="mix-blend-mode:multiply"/>
    <path fill="url(#directus-color-d)" d="M127.651515,90.459314 C124.046804,88.725963 120.878451,86.2103834 118.379557,83.0976506 C113.023391,76.4274938 112.05349,69.9374168 113.711007,64.7727273 C109.939976,68.6840611 107.920557,74.943636 109.809691,83.2777304 C110.207157,85.048122 110.784341,86.7737441 111.53235,88.4280135 C117.054992,90.4881268 122.512491,91.5830121 127.651515,90.459314 Z" style="mix-blend-mode:multiply"/>
    <path fill="url(#directus-color-e)" d="M145.7119,69.6969697 L145.7119,69.589387 C146.177449,65.9172309 145.7119,62.6180282 146.105826,58.9171833 C147.015438,49.8443758 150.904566,48.2306353 155.681818,47.7357549 C148.703823,47.5226919 142.222782,51.3380325 139.015152,57.547297 C143.971461,61.6856448 143.248069,67.0647797 145.7119,69.6969697 Z"/>
    <path fill="url(#directus-color-f)" d="M71.969697,36.6605756 C60.0002242,35.3253007 51.1219666,34.3601292 42.7253635,22.7272727 C38.3066036,25.2284966 35.8296335,30.1829388 36.4611072,35.2570549 C37.0925809,40.331171 40.7065813,44.5131719 45.6009125,45.8333333 C52.8458165,39.3808518 62.3250636,36.0833605 71.969697,36.6605756 Z" opacity=".85"/>
    <path fill="url(#directus-color-g)" d="M127.272727,90.461871 L127.272727,90.461871 C124.188735,88.9778411 121.421021,86.9116495 119.122058,84.3771221 C112.653273,82.7104612 104.847606,79.2406457 99.3635137,72.0136593 C88.2012657,57.293883 67.8030303,61.0295021 67.8030303,61.0295021 C69.8867726,65.4797494 70.3297369,70.5229024 69.0536621,75.2679584 C84.2481193,67.487813 108.017311,94.6788104 127.272727,90.461871 Z" style="mix-blend-mode:multiply"/>
    <path fill="url(#directus-color-h)" d="M112.121212,45.1588158 C108.105923,45.2381047 103.486182,43.9190262 98.5138432,42.1314225 C71.2991053,32.2996022 56.3101314,41.4754872 42.7315459,22.7272727 C38.3084918,25.2116599 35.8291146,30.1327518 36.4612019,35.1727121 C37.0932893,40.2126724 40.7108018,44.3665226 45.6098894,45.6777975 C40.2417788,51.3217237 39.8819858,58.248688 38.2557218,64.0151515 L67.8882682,60.8868451 C64.8228324,45.6777975 102.320452,47.8258052 112.121212,45.1588158 Z" opacity=".8" style="mix-blend-mode:multiply"/>
    <path fill="url(#directus-color-i)" fill-opacity=".85" d="M80.3030303,1.34712903 C90.059087,18.5373408 110.801131,26.0056621 129.171303,18.9424998 C137.978824,15.1940203 147.884306,15.0173164 156.818182,18.4493072 C134.72517,3.09506157 106.228283,-2.94654759 80.3030303,1.34712903 Z" style="mix-blend-mode:multiply"/>
    <path fill="url(#directus-color-j)" d="M176.515152,36.3899159 C171.001906,29.928233 164.71741,24.1631498 157.801519,19.222962 C149.581418,13.4088596 140.540961,8.84532219 130.976247,5.68181818 L130.976247,5.68181818 L128.867365,18.820892 L128.867365,18.820892 L128.572265,19.3952778 C128.075634,20.4794309 127.017594,23.3011008 125.743628,29.7629404 C124.016216,38.5366826 120.705342,42.830216 116.386812,44.4241365 C116.206873,44.4887549 116.005341,44.5605531 115.782217,44.6251715 L115.530303,44.6969697 L115.530303,44.6969697 C139.203048,40.9921817 135.172419,16.846441 155.267981,31.9240668 C160.932454,36.1745213 166.863236,41.0711597 176.515152,36.3899159 Z" style="mix-blend-mode:multiply"/>
    <path fill="url(#directus-color-k)" d="M176.515152,36.3899159 C171.001906,29.928233 164.71741,24.1631498 157.801519,19.222962 C149.581418,13.4088596 140.540961,8.84532219 130.976247,5.68181818 L130.976247,5.68181818 L128.867365,18.820892 L128.867365,18.820892 L128.572265,19.3952778 C128.075634,20.4794309 127.017594,23.3011008 125.743628,29.7629404 C124.016216,38.5366826 120.705342,42.830216 116.386812,44.4241365 C116.206873,44.4887549 116.005341,44.5605531 115.782217,44.6251715 L115.530303,44.6969697 L115.530303,44.6969697 C139.203048,40.9921817 135.172419,16.846441 155.267981,31.9240668 C160.932454,36.1745213 166.863236,41.0711597 176.515152,36.3899159 Z" style="mix-blend-mode:multiply"/>
    <path fill="url(#directus-color-l)" d="M127.272727,90.4562757 C123.693178,88.721702 120.546941,86.2043479 118.06549,83.0894195 C116.519422,81.0864867 115.212009,78.9092422 114.169844,76.6019727 C107.262619,61.9619678 107.291369,44.2512381 67.8030303,60.8879349 C75.8099487,67.9664602 69.0536621,75.2107758 69.0536621,75.2107758 C79.8349704,69.6676129 94.9719274,81.8207632 109.727945,87.8180473 C111.100765,88.3730845 112.329834,88.834414 113.652341,89.2597022 C118.317054,90.7590232 122.909891,91.4221844 127.272727,90.4562757 Z" opacity=".75" style="mix-blend-mode:multiply"/>
    <path fill="url(#directus-color-m)" d="M37.5,65.9090909 C35.8772814,70.4232473 33.0052131,74.0273498 25.4085924,75.4285439 C20.0378246,75.7102273 18.7884749,78.5053929 17.4242424,82.9545455 L17.4242424,82.9545455 C27.0286626,82.1208555 35.0701828,75.2931497 37.5,65.9090909 Z" style="mix-blend-mode:multiply"/>
    <path fill="url(#directus-color-n)" d="M162.878788,89.1275445 C154.687062,86.4534081 145.969641,85.7059119 137.429492,86.9453333 L127.272727,90.2256895 L127.272727,90.2256895 C133.011013,92.9288156 140.148005,93.8087394 148.310716,91.387189 C153.130876,89.9793108 157.53501,88.1772267 162.878788,89.1275445 L162.878788,89.1275445 Z" style="mix-blend-mode:multiply"/>
  </g>
</svg>
